icons/smiley-frown-24.svg

<svg width="24" height="24" viewBox="0 0 24 24" fill="none" xmlns="http://www.w3.org/2000/svg">
<path d="M12 1C18.0751 1 23 5.92487 23 12C23 18.0751 18.0751 23 12 23C5.92487 23 1 18.0751 1 12C1 5.92487 5.92487 1 12 1ZM12 2.5C6.75329 2.5 2.5 6.75329 2.5 12C2.5 17.2467 6.75329 21.5 12 21.5C17.2467 21.5 21.5 17.2467 21.5 12C21.5 6.75329 17.2467 2.5 12 2.5ZM12 14.3438C13.207 14.3438 14.1227 14.7482 14.7363 15.1572C15.0417 15.3608 15.2728 15.5657 15.4307 15.7236C15.5098 15.8028 15.5716 15.8709 15.6152 15.9219C15.6368 15.947 15.654 15.9681 15.667 15.9844L15.6934 16.0186C15.9418 16.3498 15.875 16.8198 15.5439 17.0684C15.2142 17.3157 14.7465 17.251 14.4971 16.9238C14.4901 16.9151 14.4828 16.9059 14.4756 16.8975C14.4548 16.8732 14.4196 16.8337 14.3701 16.7842C14.2702 16.6843 14.1146 16.5455 13.9043 16.4053C13.4866 16.1268 12.8555 15.8438 12 15.8438C11.1445 15.8438 10.5134 16.1268 10.0957 16.4053C9.88544 16.5454 9.72981 16.6843 9.62988 16.7842C9.58036 16.8337 9.54525 16.8732 9.52441 16.8975C9.51716 16.9059 9.50987 16.9151 9.50293 16.9238C9.25347 17.251 8.78581 17.3157 8.45605 17.0684C8.10977 16.8084 8.07481 16.3157 8.33301 15.9844C8.37248 15.9351 8.45094 15.842 8.56934 15.7236C8.72722 15.5657 8.95832 15.3608 9.26367 15.1572C9.87727 14.7482 10.793 14.3438 12 14.3438ZM7.75 9.5C8.44036 9.5 9 10.0596 9 10.75C9 11.4404 8.44036 12 7.75 12C7.05964 12 6.5 11.4404 6.5 10.75C6.5 10.0596 7.05964 9.5 7.75 9.5ZM16.25 9.5C16.9404 9.5 17.5 10.0596 17.5 10.75C17.5 11.4404 16.9404 12 16.25 12C15.5596 12 15 11.4404 15 10.75C15 10.0596 15.5596 9.5 16.25 9.5Z" fill="black"/>
</svg>

<svg xmlns="http://www.w3.org/2000/svg" width="24" height="24" viewBox="0 0 24 24"><path d="M12 1c6.075 0 11 4.925 11 11s-4.925 11-11 11S1 18.075 1 12 5.925 1 12 1Zm0 1.5A9.5 9.5 0 0 0 2.5 12a9.5 9.5 0 0 0 9.5 9.5 9.5 9.5 0 0 0 9.5-9.5A9.5 9.5 0 0 0 12 2.5Zm0 11.844c1.207 0 2.123.404 2.736.813.306.204.537.409.695.567.079.079.141.147.184.198l.052.062.026.035a.75.75 0 0 1-1.196.905l-.021-.026a1.853 1.853 0 0 0-.106-.114c-.1-.1-.255-.238-.466-.379A3.383 3.383 0 0 0 12 15.844c-.855 0-1.487.283-1.904.561a3.031 3.031 0 0 0-.572.493l-.021.026a.75.75 0 0 1-1.047.144c-.346-.26-.381-.752-.123-1.084.039-.049.118-.142.236-.26.158-.158.389-.363.695-.567A4.878 4.878 0 0 1 12 14.344ZM7.75 9.5a1.25 1.25 0 1 1 0 2.5 1.25 1.25 0 0 1 0-2.5Zm8.5 0a1.25 1.25 0 1 1 0 2.5 1.25 1.25 0 0 1 0-2.5Z"/></svg>
